assets/icons/qvision/settings_power.svg

<svg xmlns="http://www.w3.org/2000/svg" height="24" viewBox="0 0 24 24" width="24"><path d="M0 0h24v24H0z" fill="none"/><path d="M7 24h2v-2H7v2zm4 0h2v-2h-2v2zm2-22h-2v10h2V2zm3.56 2.44l-1.45 1.45C16.84 6.94 18 8.83 18 11c0 3.31-2.69 6-6 6s-6-2.69-6-6c0-2.17 1.16-4.06 2.88-5.12L7.44 4.44C5.36 5.88 4 8.28 4 11c0 4.42 3.58 8 8 8s8-3.58 8-8c0-2.72-1.36-5.12-3.44-6.56zM15 24h2v-2h-2v2z"/></svg>

<svg width="24" height="24" viewBox="0 0 24 24" fill="none" xmlns="http://www.w3.org/2000/svg">
<g clip-path="url(#clip0_147_4738)">
<path d="M7 24H9V22H7V24ZM11 24H13V22H11V24ZM13 2H11V12H13V2ZM16.56 4.44L15.11 5.89C16.84 6.94 18 8.83 18 11C18 14.31 15.31 17 12 17C8.69 17 6 14.31 6 11C6 8.83 7.16 6.94 8.88 5.88L7.44 4.44C5.36 5.88 4 8.28 4 11C4 15.42 7.58 19 12 19C16.42 19 20 15.42 20 11C20 8.28 18.64 5.88 16.56 4.44ZM15 24H17V22H15V24Z" fill="#323232"/>
</g>
<defs>
<clipPath id="clip0_147_4738">
<rect width="24" height="24" fill="white"/>
</clipPath>
</defs>
</svg>
